src/assets-svg/goalsicon.svg

<svg width="24" height="22" viewBox="0 0 24 22" fill="none" xmlns="http://www.w3.org/2000/svg">
<path d="M11.0746 1.63288C11.3946 0.788878 12.6056 0.788878 12.9266 1.63288L14.9966 7.36688C15.0688 7.55366 15.1959 7.71416 15.3613 7.82717C15.5266 7.94019 15.7223 8.00041 15.9226 7.99988H21.0096C21.9496 7.99988 22.3596 9.16988 21.6206 9.74288L18.0006 12.9999C17.8384 13.1245 17.7199 13.2974 17.6621 13.4935C17.6042 13.6897 17.61 13.8992 17.6786 14.0919L19.0006 19.6949C19.3226 20.5949 18.2806 21.3679 17.4926 20.8139L12.5756 17.6939C12.4072 17.5755 12.2064 17.512 12.0006 17.512C11.7948 17.512 11.594 17.5755 11.4256 17.6939L6.50856 20.8139C5.72156 21.3679 4.67856 20.5939 5.00056 19.6949L6.32257 14.0919C6.39114 13.8992 6.39692 13.6897 6.33907 13.4935C6.28122 13.2974 6.16272 13.1245 6.00057 12.9999L2.38056 9.74288C1.64056 9.16988 2.05256 7.99988 2.99056 7.99988H8.07756C8.27786 8.00054 8.47363 7.94038 8.63898 7.82735C8.80433 7.71432 8.93147 7.55374 9.00357 7.36688L11.0736 1.63288H11.0746Z" stroke="#F5FAFF" stroke-width="2" stroke-linecap="round" stroke-linejoin="round"/>
</svg>

<svg width="24" height="22" fill="none" xmlns="http://www.w3.org/2000/svg"><path d="M11.075 1.633c.32-.844 1.53-.844 1.852 0l2.07 5.734a.99.99 0 0 0 .926.633h5.087c.94 0 1.35 1.17.61 1.743L18 13a.967.967 0 0 0-.321 1.092L19 19.695c.322.9-.72 1.673-1.508 1.119l-4.917-3.12a1 1 0 0 0-1.15 0l-4.917 3.12c-.787.554-1.83-.22-1.508-1.12l1.322-5.602A.968.968 0 0 0 6 13L2.38 9.743C1.64 9.17 2.053 8 2.99 8h5.087a.99.99 0 0 0 .926-.633l2.07-5.734h0Z" stroke="#F5FAFF" stroke-width="2" stroke-linecap="round" stroke-linejoin="round"/></svg>
